public/img/events/vaermina.svg

<svg width="200" height="200" viewBox="0 0 200 200" fill="none" xmlns="http://www.w3.org/2000/svg">
<path d="M99.9598 55.4237C96.0067 55.9107 92.0364 56.288 88.0627 56.5452C84.2395 56.7921 80.2966 57.1111 76.5041 56.3943C70.8617 55.3277 65.886 52.0284 62.1312 47.7448C59.8092 45.0937 57.966 42.0379 56.5947 38.7935C56.2117 37.8915 54.7686 38.5397 55.0319 39.4554C58.0617 49.9501 62.6475 60.9317 71.3028 68.0207C73.5051 69.8247 75.9194 71.3063 78.5696 72.3558C78.5013 71.8344 78.4329 71.3097 78.3645 70.7884C73.6521 73.7345 68.3584 75.7511 62.8391 76.4542C62.1654 76.5399 61.8166 77.1092 62.1004 77.7437C64.6959 83.5363 68.6149 88.7459 73.6795 92.5905C75.0063 93.5988 76.4152 94.4974 77.8891 95.2725C78.0327 94.7409 78.1764 94.2058 78.32 93.6743C77.1881 93.7394 76.0596 93.8046 74.9277 93.8698C74.4352 93.8972 73.9018 93.8869 73.4504 94.1133C72.9613 94.3602 72.6604 94.8026 72.5031 95.3205C72.2022 96.3151 72.2535 97.5086 72.2911 98.5375C72.3355 99.6246 72.4723 100.712 72.6741 101.778C73.4333 105.822 75.1294 109.708 76.9145 113.391C80.0641 119.89 84.2224 126.129 89.7315 130.858C92.6314 133.348 95.8938 135.378 99.4913 136.682C99.9256 136.839 100.428 136.503 100.545 136.081C100.675 135.605 100.384 135.183 99.9462 135.025C93.9138 132.844 88.9689 128.42 85.0636 123.423C82.9332 120.696 81.0934 117.736 79.4827 114.677C77.7558 111.405 76.1998 107.983 75.1089 104.443C74.4455 102.296 73.9873 100.074 73.9907 97.8172C73.9907 97.2616 73.9975 96.6855 74.0762 96.1333C74.1548 95.5811 74.2027 95.6223 74.7464 95.5914C75.9365 95.5228 77.13 95.4542 78.32 95.3822C79.1168 95.3376 79.5477 94.2024 78.7509 93.784C73.488 91.0129 69.1894 86.6573 66.0775 81.6089C65.1405 80.0861 64.3095 78.5016 63.5777 76.8691C63.3315 77.2978 63.0853 77.73 62.8391 78.1587C68.6696 77.4144 74.2403 75.3738 79.2262 72.2563C79.8965 71.8379 79.6913 70.953 79.021 70.689C74.4592 68.885 70.6325 65.5582 67.5582 61.7891C64.1932 57.6633 61.6764 52.8515 59.7066 47.9197C58.5405 44.9977 57.5522 42.0071 56.6802 38.9856C56.1604 39.2051 55.6372 39.4246 55.1174 39.6475C57.583 45.4847 61.6353 50.6943 66.9187 54.2199C69.3262 55.8284 72.0141 57.0699 74.8285 57.7696C78.5731 58.699 82.4476 58.5721 86.2674 58.3561C90.8463 58.1023 95.4116 57.6873 99.9633 57.1282C100.421 57.0734 100.818 56.775 100.818 56.2708C100.815 55.8593 100.421 55.3654 99.9598 55.4237Z" fill="black"/>
<path d="M99.7182 57.1418C103.796 57.639 107.888 58.0231 111.986 58.2803C115.978 58.5306 120.042 58.7913 123.996 58.0128C129.886 56.8538 135.169 53.3629 139.085 48.9049C141.499 46.1547 143.452 43.0239 144.885 39.6633C144.362 39.4438 143.835 39.2243 143.311 39.0014C140.359 49.1484 135.954 59.6828 127.602 66.6098C125.567 68.2969 123.276 69.7303 120.807 70.6974C120.132 70.9614 119.932 71.8496 120.6 72.2645C125.622 75.3816 131.232 77.422 137.105 78.1661C136.857 77.7375 136.609 77.3054 136.361 76.8768C133.857 82.4252 130.116 87.5278 125.202 91.1936C123.9 92.1675 122.522 93.0351 121.079 93.7895C120.28 94.2078 120.71 95.3395 121.513 95.3875C122.56 95.4492 123.607 95.5075 124.651 95.5692C124.895 95.5829 125.553 95.5418 125.674 95.6824C125.904 95.9499 125.835 96.694 125.853 97.0129C125.949 99.0293 125.667 101.028 125.164 102.98C124.224 106.628 122.656 110.147 120.955 113.504C117.879 119.563 113.919 125.314 108.694 129.738C106.038 131.984 103.018 133.846 99.732 135.025C99.2946 135.183 99.0019 135.608 99.1293 136.082C99.2464 136.503 99.7492 136.839 100.19 136.682C106.83 134.298 112.203 129.508 116.443 123.994C118.689 121.072 120.624 117.924 122.302 114.649C124.144 111.059 125.853 107.27 126.851 103.353C127.451 100.998 127.795 98.4875 127.506 96.0596C127.44 95.5075 127.33 94.9383 126.944 94.5096C126.535 94.0535 125.983 93.9404 125.395 93.8958C124.103 93.8032 122.808 93.7483 121.516 93.6729C121.661 94.2044 121.806 94.7394 121.95 95.2709C127.458 92.3904 131.973 87.8433 135.248 82.6138C136.226 81.0501 137.091 79.4212 137.849 77.7409C138.135 77.1065 137.783 76.5373 137.105 76.4515C131.546 75.7486 126.214 73.7288 121.468 70.7865C121.399 71.3078 121.33 71.8324 121.262 72.3537C131.46 68.3518 137.831 58.4175 141.789 48.7129C143.022 45.6918 144.055 42.5918 144.968 39.4575C145.23 38.5522 143.783 37.8835 143.394 38.7957C141.017 44.3784 137.177 49.4227 132.069 52.7902C129.717 54.3402 127.13 55.5198 124.379 56.1748C120.731 57.0424 116.936 56.8503 113.223 56.6377C108.708 56.3805 104.203 55.9759 99.7148 55.4272C99.2533 55.3724 98.8538 55.8627 98.8538 56.2845C98.8572 56.792 99.2533 57.0835 99.7182 57.1418Z" fill="black"/>
<path d="M84.5176 125.504C82.8623 128.727 81.2035 132.086 80.895 135.75C80.5968 139.301 82.0054 142.499 84.0755 145.305C86.125 148.087 88.459 150.831 91.2693 152.875C93.8912 154.778 96.9963 155.937 100.139 156.644C103.337 157.365 106.62 157.663 109.883 157.909C111.713 158.049 113.543 158.128 115.363 157.823C116.926 157.564 118.43 156.945 119.736 156.053C125.264 152.28 126.807 145.069 126.234 138.778C125.727 133.207 123.475 127.479 118.797 124.113C118.245 123.717 117.663 123.365 117.059 123.054C116.079 122.551 115.212 124.024 116.196 124.53C120.888 126.943 123.396 131.922 124.277 136.932C124.771 139.748 124.774 142.725 124.243 145.531C123.688 148.47 122.471 151.289 120.302 153.401C119.345 154.331 118.221 155.12 116.977 155.612C115.455 156.217 113.828 156.361 112.203 156.327C110.565 156.292 108.927 156.135 107.295 155.985C105.777 155.845 104.265 155.67 102.761 155.421C99.8066 154.925 96.8592 154.146 94.2168 152.714C91.3516 151.159 89.1273 148.829 87.0641 146.351C85.0934 143.983 83.1022 141.344 82.6532 138.214C82.1802 134.895 83.4518 131.587 84.8569 128.645C85.2236 127.879 85.6075 127.127 85.9948 126.372C86.502 125.388 85.0214 124.523 84.5176 125.504Z" fill="black"/>
<path d="M91.6702 133.998C92.1538 136.997 93.025 140.048 94.9424 142.465C97.1273 145.225 100.574 146.283 103.98 146.516C107.424 146.752 111.046 145.992 113.938 144.054C116.534 142.311 118.575 139.695 119.412 136.665C119.659 135.771 119.837 134.795 119.793 133.864C119.741 132.758 119.305 131.871 118.602 131.036C117.296 129.485 115.728 128.149 114.058 127.006C113.677 126.745 113.108 126.934 112.885 127.314C112.638 127.738 112.809 128.225 113.193 128.485C114.548 129.413 115.793 130.491 116.905 131.7C117.392 132.227 117.899 132.765 118.036 133.491C118.167 134.176 118.054 134.915 117.909 135.59C117.347 138.236 115.721 140.637 113.547 142.243C111.067 144.071 107.997 144.889 104.937 144.845C101.977 144.804 98.7565 144.102 96.6745 141.862C94.5994 139.63 93.7968 136.466 93.3269 133.542C93.2548 133.087 92.682 132.83 92.2704 132.943C91.7799 133.076 91.5947 133.539 91.6702 133.998Z" fill="black"/>
<path d="M99.8023 157.527C101.185 158.894 102.553 160.302 103.668 161.898C104.693 163.368 105.59 165.057 105.741 166.873C106.037 170.477 103.499 173.245 100.494 174.851C96.6934 176.883 92.2124 177.068 88.1234 178.212C86.1667 178.76 84.2511 179.527 82.6623 180.812C81.1217 182.059 80.1312 183.834 79.7633 185.766C79.3334 188.017 79.5913 190.326 80.0831 192.546C80.6264 194.995 81.5275 197.362 82.7139 199.572C83.2091 199.284 83.7043 198.996 84.1996 198.709C82.6314 195.827 83.0681 192.203 84.8839 189.524C85.8365 188.119 87.2156 187.057 88.8078 186.472C90.713 185.769 92.7455 185.612 94.7573 185.526C96.886 185.437 99.0251 185.42 101.13 185.05C103.217 184.68 105.14 183.865 106.79 182.535C108.365 181.271 109.597 179.613 110.656 177.91C111.787 176.091 112.798 174.18 113.713 172.244C115.8 167.825 117.431 162.532 114.944 157.928C114.418 156.958 112.936 157.822 113.459 158.791C115.546 162.655 114.126 167.249 112.417 170.973C111.519 172.933 110.498 174.855 109.38 176.701C108.365 178.38 107.2 179.987 105.673 181.244C102.412 183.926 98.0243 183.638 94.0592 183.847C91.9992 183.957 89.8945 184.183 87.9721 184.968C86.1942 185.694 84.7188 186.842 83.5874 188.39C81.2592 191.576 80.8121 196.088 82.7105 199.575C83.2401 200.545 84.7154 199.681 84.1961 198.712C83.1507 196.763 82.3597 194.697 81.8438 192.549C81.383 190.644 81.0838 188.633 81.3417 186.674C81.5894 184.814 82.4354 183.149 83.9279 181.984C85.472 180.778 87.4013 180.158 89.2755 179.678C93.4401 178.616 97.8936 178.308 101.697 176.146C104.878 174.341 107.516 171.271 107.488 167.458C107.454 162.957 104.036 159.291 101.02 156.318C100.232 155.537 99.0147 156.749 99.8023 157.527Z" fill="black"/>
<path d="M84.7395 9.2969C86.2077 7.17162 87.9633 5.16307 90.1262 3.72791C92.2823 2.29961 94.7429 1.57859 97.3302 1.71936C102.501 2.0009 107.145 5.33131 110.047 9.48573C113.028 13.7569 114.5 18.9825 114.486 24.1773C114.473 29.7875 112.734 35.2947 110.02 40.1632C108.641 42.6387 106.964 44.8739 105.256 47.1228C103.651 49.2309 102.026 51.5347 101.529 54.1956C101.406 54.8651 101.345 55.5415 101.365 56.2213C101.399 57.3234 103.11 57.3269 103.076 56.2213C102.994 53.4746 104.462 51.0849 106.023 48.9425C107.731 46.5975 109.551 44.3657 111.026 41.8559C114.017 36.7642 115.982 30.9857 116.184 25.0494C116.372 19.5765 114.982 13.956 112.012 9.3381C109.058 4.74763 104.373 1.00178 98.8805 0.167463C96.0913 -0.254846 93.309 0.112529 90.773 1.37259C88.3021 2.60175 86.2282 4.56223 84.5307 6.71497C84.0927 7.27119 83.6717 7.84114 83.2679 8.42825C83.0044 8.80936 83.196 9.38274 83.5759 9.60247C83.9934 9.85655 84.476 9.68144 84.7395 9.2969Z" fill="black"/>
<path d="M97.6433 10.446C98.3214 11.5513 98.2629 12.984 97.5194 14.0484C96.7174 15.1946 95.1856 15.5357 93.8775 15.6824C92.27 15.8666 90.635 15.8836 89.0756 16.3544C87.413 16.8559 85.8709 17.736 84.6008 18.9129C83.9364 19.5269 83.4097 20.3251 82.6766 20.8607C82.2187 21.195 81.4683 21.4748 81.0174 21.0313C80.2291 20.2569 79.014 21.4645 79.7989 22.2389C80.4735 22.9007 81.4133 23.0678 82.322 22.8768C83.2445 22.6823 83.9949 22.0513 84.618 21.3826C85.2548 20.7038 85.8537 20.0045 86.6145 19.4553C87.3442 18.9265 88.1497 18.4796 88.9999 18.176C92.2356 17.0094 96.6588 18.1658 98.9376 15.0069C100.063 13.4446 100.135 11.2204 99.1303 9.5864C98.5521 8.6483 97.0616 9.50453 97.6433 10.446Z" fill="black"/>
<path d="M97.7825 16.3401C99.456 18.9429 101.437 22.0312 101.041 25.2769C100.703 28.0472 98.4553 29.9796 96.5223 31.7478C95.4773 32.7055 94.4493 33.6802 93.5716 34.7986C92.687 35.9272 91.9254 37.1414 91.3073 38.4376C90.0471 41.0848 89.3231 43.9406 88.9201 46.8375C88.459 50.1652 88.3702 53.5238 88.3839 56.879C88.3873 57.9802 90.0949 57.9802 90.0915 56.879C90.071 51.1263 90.1939 44.9837 92.6187 39.6518C93.2096 38.3521 93.9302 37.1003 94.8045 35.9751C95.6685 34.867 96.6965 33.9059 97.7279 32.9586C99.8078 31.0535 102.065 28.9844 102.629 26.0807C103.377 22.2228 101.259 18.594 99.2545 15.4783C98.6637 14.5548 97.1849 15.4133 97.7825 16.3401Z" fill="black"/>
<path d="M82.5284 7.96066C81.7144 9.13026 80.7532 10.1907 79.6826 11.1353C78.6736 12.0219 77.4012 12.6732 76.5084 13.6859C75.6465 14.6611 75.301 15.916 75.667 17.1811C76.0124 18.3745 76.8881 19.3259 78.0681 19.7317C77.9997 19.2134 77.9313 18.6916 77.8629 18.1733C75.6841 19.1827 73.3684 20.342 71.8292 22.2414C71.4564 22.7017 71.1143 23.1893 70.8612 23.7281C70.5807 24.3214 70.4781 24.9215 70.2661 25.5319C70.2113 25.6888 70.1395 25.7877 70.0916 25.8149C69.8522 25.9377 69.5272 25.9513 69.2639 25.9957C68.6755 26.0911 68.1009 26.2616 67.6802 26.7152C67.0782 27.363 67.6802 28.3042 68.5114 28.1405C68.9081 28.0621 69.4554 27.9154 69.8385 28.1132C69.9035 28.1473 69.9822 28.2292 70.0095 28.2735C70.0711 28.386 69.9822 28.4542 70.0677 28.3621C69.322 29.1669 70.5294 30.3774 71.2785 29.5693C71.9866 28.8054 71.8429 27.6768 71.1314 26.9607C70.3174 26.1457 69.0894 26.2923 68.0633 26.4935C68.3403 26.9675 68.6174 27.4449 68.8945 27.9189C69.0176 27.7859 69.1407 27.7484 69.4041 27.6938C69.6504 27.6427 69.9001 27.6154 70.1463 27.5676C70.7381 27.4483 71.299 27.1619 71.6308 26.6435C71.9797 26.0946 72.0139 25.416 72.2431 24.8158C72.4244 24.3487 72.6912 23.8986 72.999 23.4996C74.4082 21.6617 76.676 20.5978 78.7283 19.6464C79.4466 19.3122 79.1558 18.3063 78.5231 18.0881C77.8355 17.8528 77.3396 17.1094 77.2438 16.4343C77.1036 15.4522 77.7569 14.7362 78.5402 14.1496C79.5458 13.3926 80.5651 12.68 81.4783 11.8036C82.4224 10.9 83.2604 9.89408 84.0061 8.82337C84.2694 8.44487 84.0745 7.87541 83.6982 7.65718C83.2707 7.40826 82.7918 7.58216 82.5284 7.96066Z" fill="black"/>
<path d="M83.7228 10.3056C83.8116 10.3941 83.897 10.4791 83.9858 10.5676C84.0643 10.6493 84.1531 10.7105 84.259 10.7445C84.3614 10.799 84.4707 10.8228 84.5868 10.8194C84.7029 10.8228 84.8156 10.799 84.9146 10.7445C85.0205 10.7105 85.1127 10.6527 85.1878 10.5676C85.2322 10.5098 85.2766 10.4519 85.321 10.3941C85.3996 10.2614 85.4371 10.1185 85.4371 9.96538C85.4269 9.89052 85.4167 9.81567 85.4064 9.74082C85.3654 9.59792 85.2937 9.47203 85.1878 9.36655C85.0991 9.27809 85.0137 9.19304 84.9249 9.10457C84.8463 9.02292 84.7576 8.96167 84.6517 8.92765C84.5492 8.87321 84.44 8.84939 84.3238 8.8528C84.2077 8.84939 84.095 8.87321 83.996 8.92765C83.8901 8.96167 83.7979 9.01951 83.7228 9.10457C83.6784 9.16241 83.634 9.22025 83.5896 9.27809C83.5111 9.41079 83.4735 9.55369 83.4735 9.70679C83.4838 9.78164 83.494 9.8565 83.5042 9.93135C83.5452 10.0743 83.6169 10.2001 83.7228 10.3056Z" fill="black"/>
<path d="M82.2096 106.659C84.6806 112.542 88.1448 117.964 92.4881 122.68C93.2391 123.495 94.4573 122.285 93.7132 121.473C89.5845 116.989 86.231 111.798 83.8811 106.202C83.7012 105.776 83.3066 105.472 82.8152 105.605C82.4068 105.721 82.0296 106.233 82.2096 106.659Z" fill="black"/>
<path d="M117.1 106.2C114.751 111.797 111.398 116.988 107.27 121.473C106.522 122.285 107.744 123.495 108.494 122.68C112.837 117.963 116.301 112.541 118.772 106.657C118.952 106.231 118.578 105.719 118.166 105.607C117.664 105.47 117.277 105.774 117.1 106.2Z" fill="black"/>
</svg>

<svg xmlns="http://www.w3.org/2000/svg" width="200" height="200" fill="none"><path fill="#000" d="M99.96 55.424c-3.953.487-7.924.864-11.897 1.121-3.823.247-7.766.566-11.559-.15-5.642-1.067-10.618-4.367-14.373-8.65-2.322-2.651-4.165-5.707-5.536-8.951-.383-.902-1.826-.254-1.563.661 3.03 10.495 7.616 21.477 16.27 28.566 2.203 1.804 4.617 3.285 7.268 4.335l-.205-1.568c-4.713 2.947-10.007 4.963-15.526 5.666-.674.086-1.022.655-.739 1.29 2.596 5.792 6.515 11.002 11.58 14.847a30 30 0 0 0 4.21 2.682l.43-1.599-3.392.196c-.493.027-1.026.017-1.478.243-.489.247-.79.69-.947 1.207-.3.995-.25 2.189-.212 3.218.044 1.087.181 2.174.383 3.24.76 4.044 2.455 7.93 4.24 11.613 3.15 6.499 7.308 12.738 12.817 17.467 2.9 2.49 6.163 4.52 9.76 5.824.435.157.937-.179 1.054-.601.13-.476-.161-.898-.599-1.056-6.032-2.181-10.977-6.605-14.882-11.602-2.13-2.727-3.97-5.687-5.581-8.746-1.727-3.272-3.283-6.694-4.374-10.234-.663-2.147-1.122-4.369-1.118-6.626 0-.555.007-1.131.085-1.684.079-.552.127-.51.67-.542q1.787-.101 3.574-.209c.797-.044 1.228-1.18.43-1.598-5.262-2.771-9.56-7.127-12.672-12.175a41 41 0 0 1-2.5-4.74q-.37.645-.739 1.29c5.83-.745 11.401-2.785 16.387-5.903.67-.418.465-1.303-.205-1.567-4.562-1.804-8.389-5.13-11.463-8.9-3.365-4.126-5.882-8.937-7.851-13.87-1.166-2.921-2.155-5.912-3.027-8.933q-.782.329-1.563.662c2.466 5.837 6.518 11.046 11.802 14.572 2.407 1.608 5.095 2.85 7.91 3.55 3.744.929 7.619.802 11.438.586a206 206 0 0 0 13.696-1.228c.458-.055.855-.353.855-.857-.003-.412-.397-.906-.858-.847"/><path fill="#000" d="M99.718 57.142c4.078.497 8.17.881 12.268 1.138 3.992.25 8.056.511 12.01-.267 5.89-1.16 11.173-4.65 15.089-9.108a34.6 34.6 0 0 0 5.8-9.242q-.786-.329-1.574-.662c-2.952 10.147-7.357 20.682-15.709 27.609-2.035 1.687-4.326 3.12-6.795 4.087-.675.264-.875 1.153-.207 1.567 5.022 3.118 10.632 5.158 16.505 5.902l-.744-1.29c-2.504 5.55-6.245 10.652-11.159 14.318a30.4 30.4 0 0 1-4.123 2.596c-.799.418-.369 1.55.434 1.597q1.571.091 3.138.182c.244.014.902-.027 1.023.113.23.268.161 1.012.179 1.33.096 2.017-.186 4.016-.689 5.968-.94 3.648-2.508 7.167-4.209 10.524-3.076 6.059-7.036 11.81-12.261 16.234-2.656 2.246-5.676 4.108-8.962 5.287-.437.158-.73.583-.603 1.057.117.421.62.757 1.061.6 6.64-2.384 12.013-7.174 16.253-12.688 2.246-2.922 4.181-6.07 5.859-9.345 1.842-3.59 3.551-7.379 4.549-11.296.6-2.355.944-4.865.655-7.293-.066-.553-.176-1.122-.562-1.55-.409-.457-.961-.57-1.549-.614-1.292-.093-2.587-.148-3.879-.223l.434 1.598c5.508-2.88 10.023-7.428 13.298-12.657a41 41 0 0 0 2.601-4.873c.286-.635-.066-1.204-.744-1.29-5.559-.702-10.891-2.722-15.637-5.664l-.206 1.567c10.198-4.002 16.569-13.937 20.527-23.641 1.233-3.021 2.266-6.121 3.179-9.255.262-.906-1.185-1.575-1.574-.662-2.377 5.582-6.217 10.627-11.325 13.994-2.352 1.55-4.939 2.73-7.69 3.385-3.648.867-7.443.675-11.156.463q-6.774-.388-13.508-1.21c-.462-.056-.861.435-.861.857.003.507.4.799.864.857"/><path fill="#000" d="M84.518 125.504c-1.656 3.223-3.314 6.582-3.623 10.246-.298 3.551 1.11 6.749 3.18 9.555 2.05 2.782 4.384 5.526 7.194 7.57 2.622 1.903 5.727 3.062 8.87 3.769 3.198.721 6.481 1.019 9.744 1.265 1.83.14 3.66.219 5.48-.086a11 11 0 0 0 4.373-1.77c5.528-3.773 7.071-10.984 6.498-17.275-.507-5.571-2.759-11.299-7.437-14.665a14 14 0 0 0-1.738-1.059c-.98-.503-1.847.97-.863 1.476 4.692 2.413 7.2 7.392 8.081 12.402.494 2.816.497 5.793-.034 8.599-.555 2.939-1.772 5.758-3.941 7.87-.957.93-2.081 1.719-3.325 2.211-1.522.605-3.149.749-4.774.715-1.638-.035-3.276-.192-4.908-.342a63 63 0 0 1-4.534-.564c-2.954-.496-5.902-1.275-8.544-2.707-2.865-1.555-5.09-3.885-7.153-6.363-1.97-2.368-3.962-5.007-4.41-8.137-.474-3.319.798-6.627 2.203-9.569.367-.766.75-1.518 1.138-2.273.507-.984-.974-1.849-1.477-.868"/><path fill="#000" d="M91.67 133.998c.484 2.999 1.355 6.05 3.272 8.467 2.185 2.76 5.632 3.818 9.038 4.051 3.444.236 7.066-.524 9.958-2.462 2.596-1.743 4.637-4.359 5.474-7.389.247-.894.425-1.87.381-2.801-.052-1.106-.488-1.993-1.191-2.828-1.306-1.551-2.874-2.887-4.544-4.03-.381-.261-.95-.072-1.173.308-.247.424-.076.911.308 1.171 1.355.928 2.6 2.006 3.712 3.215.487.527.994 1.065 1.131 1.791.131.685.018 1.424-.127 2.099-.562 2.646-2.188 5.047-4.362 6.653-2.48 1.828-5.55 2.646-8.61 2.602-2.96-.041-6.18-.743-8.263-2.983-2.075-2.232-2.877-5.396-3.347-8.32-.072-.455-.645-.712-1.057-.599-.49.133-.675.596-.6 1.055M99.802 157.527c1.383 1.367 2.751 2.775 3.866 4.371 1.025 1.47 1.922 3.159 2.073 4.975.296 3.604-2.242 6.372-5.247 7.978-3.8 2.032-8.282 2.217-12.37 3.361-1.957.548-3.873 1.315-5.462 2.6-1.54 1.247-2.53 3.022-2.899 4.954-.43 2.251-.172 4.56.32 6.78a27.5 27.5 0 0 0 2.63 7.026l1.487-.863c-1.569-2.882-1.132-6.506.684-9.185a8.1 8.1 0 0 1 3.924-3.052c1.905-.703 3.938-.86 5.95-.946 2.128-.089 4.267-.106 6.372-.476 2.087-.37 4.01-1.185 5.66-2.515 1.575-1.264 2.807-2.922 3.866-4.625 1.131-1.819 2.142-3.73 3.057-5.666 2.087-4.419 3.718-9.712 1.231-14.316-.526-.97-2.008-.106-1.485.863 2.087 3.864.667 8.458-1.042 12.182a57 57 0 0 1-3.037 5.728c-1.015 1.679-2.18 3.286-3.707 4.543-3.261 2.682-7.649 2.394-11.614 2.603-2.06.11-4.165.336-6.087 1.121a10.06 10.06 0 0 0-4.385 3.422c-2.328 3.186-2.775 7.698-.877 11.185.53.97 2.005.106 1.486-.863a25.8 25.8 0 0 1-2.352-6.163c-.461-1.905-.76-3.916-.502-5.875.247-1.86 1.093-3.525 2.586-4.69 1.544-1.206 3.473-1.826 5.347-2.306 4.165-1.062 8.619-1.37 12.422-3.532 3.181-1.805 5.819-4.875 5.791-8.688-.034-4.501-3.452-8.167-6.468-11.14-.788-.781-2.005.431-1.218 1.209M84.74 9.297c1.468-2.125 3.223-4.134 5.386-5.57C92.282 2.3 94.743 1.58 97.33 1.72c5.171.282 9.815 3.612 12.717 7.767 2.981 4.27 4.453 9.497 4.439 14.691-.013 5.61-1.752 11.118-4.466 15.986-1.379 2.476-3.056 4.71-4.764 6.96-1.605 2.108-3.23 4.412-3.727 7.073a9.6 9.6 0 0 0-.164 2.025c.034 1.102 1.745 1.106 1.711 0-.082-2.746 1.386-5.136 2.947-7.278 1.708-2.346 3.528-4.577 5.003-7.087 2.991-5.092 4.956-10.87 5.158-16.807.188-5.472-1.202-11.093-4.172-15.71-2.954-4.591-7.639-8.337-13.132-9.172-2.789-.422-5.571-.054-8.107 1.206-2.47 1.229-4.545 3.19-6.242 5.342a33 33 0 0 0-1.263 1.713c-.264.381-.072.955.308 1.174.417.255.9.08 1.164-.305"/><path fill="#000" d="M97.643 10.446c.678 1.105.62 2.538-.124 3.602-.802 1.147-2.333 1.488-3.642 1.634-1.607.185-3.242.202-4.801.672a11.5 11.5 0 0 0-4.475 2.559c-.665.614-1.191 1.412-1.924 1.948-.458.334-1.209.614-1.66.17-.788-.774-2.003.434-1.218 1.208.674.662 1.614.829 2.523.638.922-.195 1.673-.826 2.296-1.494.637-.68 1.236-1.378 1.997-1.928A9.6 9.6 0 0 1 89 18.176c3.236-1.167 7.659-.01 9.938-3.17 1.125-1.561 1.197-3.786.192-5.42-.578-.938-2.068-.081-1.487.86"/><path fill="#000" d="M97.783 16.34c1.673 2.603 3.654 5.691 3.258 8.937-.338 2.77-2.586 4.703-4.519 6.47-1.045.959-2.073 1.933-2.95 3.052a19.5 19.5 0 0 0-2.265 3.639c-1.26 2.647-1.984 5.503-2.387 8.4-.461 3.327-.55 6.686-.536 10.041.003 1.101 1.71 1.101 1.707 0-.02-5.753.103-11.895 2.528-17.227.59-1.3 1.311-2.552 2.186-3.677.863-1.108 1.891-2.07 2.923-3.016 2.08-1.906 4.337-3.975 4.901-6.878.748-3.858-1.37-7.487-3.375-10.603-.59-.923-2.07-.065-1.472.862M82.528 7.96a17.8 17.8 0 0 1-2.845 3.175c-1.01.887-2.282 1.538-3.175 2.55-.861.976-1.207 2.231-.841 3.496.345 1.194 1.221 2.145 2.401 2.55l-.205-1.558c-2.179 1.01-4.495 2.169-6.034 4.068-.373.46-.715.948-.968 1.487-.28.593-.383 1.194-.595 1.804-.055.157-.127.256-.174.283-.24.123-.565.136-.828.18-.588.096-1.163.267-1.584.72-.602.648 0 1.59.831 1.425.397-.078.944-.225 1.328-.027a.6.6 0 0 1 .17.16c.062.113-.027.181.059.09-.746.804.461 2.014 1.21 1.206.709-.764.565-1.892-.147-2.608-.814-.815-2.042-.669-3.068-.467l.831 1.425c.124-.133.247-.17.51-.225.246-.051.496-.079.742-.126.592-.12 1.153-.406 1.485-.925.349-.548.383-1.227.612-1.827.181-.467.448-.917.756-1.316 1.41-1.838 3.677-2.902 5.73-3.854.718-.334.427-1.34-.206-1.558-.687-.235-1.183-.979-1.28-1.654-.14-.982.514-1.698 1.297-2.284 1.006-.757 2.025-1.47 2.938-2.346a19.7 19.7 0 0 0 2.528-2.98c.263-.38.069-.949-.308-1.167-.427-.249-.906-.075-1.17.304"/><path fill="#000" d="m83.723 10.306.263.262a.65.65 0 0 0 .273.177.65.65 0 0 0 .328.074.64.64 0 0 0 .328-.075.6.6 0 0 0 .273-.176l.133-.174a.8.8 0 0 0 .116-.429l-.03-.224a.85.85 0 0 0-.22-.374l-.262-.262a.65.65 0 0 0-.273-.177.65.65 0 0 0-.328-.075.64.64 0 0 0-.328.075.6.6 0 0 0-.273.177l-.133.173a.83.83 0 0 0-.117.429l.031.224a.85.85 0 0 0 .219.375M82.21 106.659a55.2 55.2 0 0 0 10.278 16.021c.751.815 1.97-.395 1.225-1.207a52.8 52.8 0 0 1-9.832-15.271c-.18-.426-.574-.73-1.066-.597-.408.116-.785.628-.605 1.054M117.1 106.2c-2.349 5.597-5.702 10.788-9.83 15.273-.748.812.474 2.022 1.224 1.207a55.2 55.2 0 0 0 10.278-16.023c.18-.426-.194-.938-.606-1.05-.502-.137-.889.167-1.066.593"/></svg>
